!!!COM: Bach, Johann Sebastian
!!!OPR: Joh. Seb. Bachs vierstimmige Choralgesänge
!!!XEN: Four-part Chorales
!!!OTL: 29. Christus, der ist mein Leben
!!!SCT: BWV 282
!!!SCA: Thematisch-systematisches Verzeichnis der musikalischen Werke Johann Sebastian Bach: Bach-Werke-Verzeichnis (Schmieder)
!!!YOR: Bach Gesellschaft Edition xxxix
!!!ENC: Steven Rasmussen
!!!CDT: 1685/3//-1750/7/28/
!!!OCY: Deutschland
!!!YEC: Copyright (c) 1994, 2000 Center for Computer Assisted Research in the Humanities
!!!YEM: Rights to all derivative editions reserved
!!!YEN: United States of America
**kern	**silbe	**kern	**silbe	**kern	**silbe	**kern	**silbe
*I:[BASSO]	*I:[BASSO]	*I:[TENORE]	*I:[TENORE]	*I:[ALTO]	*I:[ALTO]	*I:[SOPRANO]	*I:[SOPRANO]
*clefF4	*	*clefGv2	*	*clefG2	*	*clefG2	*
*k[f#]	*	*k[f#]	*	*k[f#]	*	*k[f#]	*
*G:	*	*G:	*	*G:	*	*G:	*
*M3/4	*	*M3/4	*	*M3/4	*	*M3/4	*
4G	.	4B	.	4d	.	4g	Chri-
=1	=1	=1	=1	=1	=1	=1	=1
2G	.	2d	.	2g	.	2b	-stus,
4D	.	4d	.	4f#	.	4a	der
=2	=2	=2	=2	=2	=2	=2	=2
4G	.	2d	.	2g	.	2b	ist
4F#	.	.	.	.	.	.	.
4E	.	4c	.	4g	.	4cc	mein
=3	=3	=3	=3	=3	=3	=3	=3
8BBL	.	4.B	.	4.g	.	2.dd	Le-
8CJ	.	.	.	.	.	.	.
2D	.	.	.	.	.	.	.
.	.	16ALL	.	16f#LL	.	.	.
.	.	16GJJ	.	16eJJ	.	.	.
.	.	4A	.	4f#	.	.	.
=4	=4	=4	=4	=4	=4	=4	=4
2GG;	.	2G;	.	2d;	.	2b;	-ben,
4r	.	4r	.	4r	.	4r	.
=5	=5	=5	=5	=5	=5	=5	=5
2.r	.	2.r	.	2.r	.	[2.ee	Ster-
=6	=6	=6	=6	=6	=6	=6	=6
2.r	.	2.r	.	[2.fn	Ster-	2.ee]	.
=7	=7	=7	=7	=7	=7	=7	=7
2.r	.	[2.G#	Ster-	2.f_	.	[2.dd	.
=8	=8	=8	=8	=8	=8	=8	=8
[2.C	Ster-	2.G#]	.	2.f]	.	2.dd]	.
=9	=9	=9	=9	=9	=9	=9	=9
4.C]	.	[2.A	.	2.e	.	[2.cc	.
8BBL	.	.	.	.	.	.	.
8C	.	.	.	.	.	.	.
8AAJ	.	.	.	.	.	.	.
=10	=10	=10	=10	=10	=10	=10	=10
4D	.	4A]	.	4f#	.	8ccL]	.
.	.	.	.	.	.	8bJ	.
4D;	-ben	4A;	-ben	4f#;	-ben	4cc;	-ben
4r	.	4r	.	4r	.	4r	.
=11	=11	=11	=11	=11	=11	=11	=11
8EL	.	8GL	.	8gL	.	4b	ist
8DJ	.	8BJ	.	8f#J	.	.	.
4C	.	8BL	.	4e	.	8eeL	mein
.	.	16AL	.	.	.	8ccJ	.
.	.	16BJJ	.	.	.	.	.
4C	.	4c	.	8f#L	.	4a	Ge-
.	.	.	.	8eJ	.	.	.
=12	=12	=12	=12	=12	=12	=12	=12
2BB;	.	2F#;	.	2d#;	.	2b;	-winn;
4B	.	4d	.	4g	.	4dd	dem
=13	=13	=13	=13	=13	=13	=13	=13
2B	.	2c	.	2g	.	2ee	tu'
4A	.	4c	.	4a	.	4ff#	ich
=14	=14	=14	=14	=14	=14	=14	=14
4G	.	2d	.	2b	.	2gg	mich
4B	.	.	.	.	.	.	.
4d	.	4d	.	4a	.	4ff#	er-
=15	=15	=15	=15	=15	=15	=15	=15
8GL	.	4.d	.	8bL	.	2.ee	-ge-
8F#J	.	.	.	8aJ	.	.	.
4E	.	.	.	4.g	.	.	.
.	.	16c#LL	.	.	.	.	.
.	.	16BJJ	.	.	.	.	.
4A	.	4c#	.	.	.	.	.
.	.	.	.	16aLL	.	.	.
.	.	.	.	16gJJ	.	.	.
=16	=16	=16	=16	=16	=16	=16	=16
2D;	.	2A;	.	2f#;	.	2dd;	-ben,
8EL	.	4e	.	4g	.	4b	mit
8DJ	.	.	.	.	.	.	.
=17	=17	=17	=17	=17	=17	=17	=17
4C#	.	4e	.	4g	.	2a	Freud'
4D#	.	4B	.	4f#	.	.	.
4E	.	4B	.	4e	.	4g	fahr'
=18	=18	=18	=18	=18	=18	=18	=18
4C	.	8cL	.	4e	.	2g	ich
.	.	8BJ	.	.	.	.	.
2D	.	(8AL	.	2d	.	.	.
.	.	8BJ	.	.	.	.	.
.	.	4c)	.	.	.	4f#	da-
=19	=19	=19	=19	=19	=19	=19	=19
2GG;	.	2B;	.	2d;	.	2g;	-hin.
==|!	==|!	==|!	==|!	==|!	==|!	==|!	==|!
*-	*-	*-	*-	*-	*-	*-	*-
!!!RWG: Key is interpreted using the Humdrum key tool.
!!!URL-pdf: https://s9.imslp.org/files/imglnks/usimg/6/6b/IMSLP24489-PMLP09471-CCARH_Bach_Chorales.pdf#page=20 Musedata edition
!!!URL-pdf: https://s9.imslp.org/files/imglnks/usimg/7/7a/IMSLP04155-Bach_-_BGA_253-438.pdf#page=17 	Bach-Gesellschaft Ausgabe, Band 39 (pp.175-276) Leipzig: Breitkopf und Härtel, 1892. Plate B.W. XXXIX.
!!!END: 1994/05/11
!!!EMD: Converted from MuseData to Humdrum Dec 19, 2000, by Andreas Kornstaedt using muse2kern.
!!!EED: Craig Stuart Sapp
!!!EEV: 2024/03/31
!!!filter-keyboard: satb2gs
